X:1
T:Title
%%score { 1 | 2 }
L:1/8
M:3/4
K:Eb
V:1 treble nm="Grand Piano"
V:2 bass 
V:1
 z2 z[Q:1/4=100] E GG | G3 E ec | B4 E2 | G3 G cB | F3 E GG | G3 E ec | B4 [Ec]2 | %7
 [EB]3 [EG] [DA][DF] |[M:9/16] E4- E/ |[M:4/4] B[Ge]- [Ge]/[Ge]/[Ge] [Ae] [Ge]3 | %10
 [GB]c- c/c/c c c3 | c[EGB]- [EGB]/[B,FA]/[B,EG] [B,FA][EGB]- [EGB]/[EAc]/[EGB] | %12
 [B,EG][B,FA][B,FA][B,EG] [B,EG] [B,DF]3 | [AB][Ge]- [Ge]/[Ge]/[Ge] [Ae] [Ge]3 | %14
 [GB]c- c/c/c c c3 | ed- d/c/B cB- B/A/G |[M:7/8] [Ec][EB][Ge] [Ae][Ad] [Ge]2- | [Ge] z z z z z2 |] %18
V:2
 z2 z [E,G,] [E,B,E][E,B,E] | [E,B,E]3 [E,G,] [G,B,E][A,E] | [E,G,E]4 [E,G,]2 | %3
 [E,B,E]3 [E,B,E] [E,A,E][E,G,E] | [B,D]3 [E,G,] [E,B,E][E,B,E] | [E,B,E]3 [E,G,] [G,B,E][A,E] | %6
 [E,G,E]4 [A,,A,]2 | [B,,G,]3 [B,,B,] [B,,F,][B,,A,] |[M:9/16] [E,G,]4- [E,G,]/ | %9
[M:4/4] B,[E,B,]- [E,B,]/[E,B,]/[E,B,] [E,C] [E,B,]3 | %10
 [E,E][K:treble][A,EA]- [A,EA]/[A,EA]/[A,EA] [A,EA] [A,EA]3 | %11
 [A,EA][K:bass]E,- E,/E,/E, E,E,- E,/E,/E, | E,D,D,E, E, B,,3 | %13
 B,[E,B,]- [E,B,]/[E,B,]/[E,B,] [E,C] [E,B,]3 | %14
 [E,E][K:treble][A,EA]- [A,EA]/[A,EA]/[A,EA] [A,EA] [A,EA]3 | %15
 [A,CA][A,EB]- [A,EB]/[A,EA]/[K:bass][G,E] [A,E][G,B,E]- [G,B,E]/[F,B,D]/[E,B,E] | %16
[M:7/8] [A,,A,][B,,G,][B,,E,] [B,,F,][B,,B,] [E,B,]2- | [E,B,] z z z z z2 |] %18

